X: 20673
Q: "Very slow."
M: 3/4
L: 1/16
K: G
(G3A) |\
{A2}B8 {B}A4 | ({A}G4 E4) D4 |\
(G4 E4) D4 | {D}E4 G4 (G3A) |\
{A2}B8 B3A | {A}G4 E4 D4 |\
{A2}B8 A3G | (G4 E4) D4 |\
{D}E4 G4 (G3A) | G8 |]
(B2d2) |\
e8 (edB2) | (A4 G4) A4 |\
(A4 B4 d4) | g8 (e2d2) |\
(B4 e4) (e3f) | e8 d4 |\
(e3f) g4 f4 | (e3f)(e3d)(B2e2) |\
(d3e)(dB3)(A3G) | {G2}A8 B3d |\
(e2f2)(g2e2)(d2B2) | c6 B2A2G2 |\
E4 G4 G3A | G8 |]


